symbols/web/dataset/materialsymbolssharp/dataset_gradN25_24px.svg

<svg xmlns="http://www.w3.org/2000/svg" height="24" width="24"><path d="M3.225 20.775V3.225h17.55v17.55ZM5.1 18.9h13.8V5.1H5.1Zm0 0V5.1v13.8Zm2.1-7.85h3.875V7.175H7.2Zm5.75 0h3.875V7.175H12.95ZM7.2 16.8h3.875v-3.875H7.2Zm5.75 0h3.875v-3.875H12.95Z"/></svg>

<svg xmlns="http://www.w3.org/2000/svg" height="24" width="24"><path d="M3.225 20.775V3.225H20.775V20.775ZM5.1 18.9H18.9V5.1H5.1ZM5.1 18.9V5.1V18.9ZM7.2 11.05H11.075V7.175H7.2ZM12.95 11.05H16.825V7.175H12.95ZM7.2 16.8H11.075V12.925H7.2ZM12.95 16.8H16.825V12.925H12.95Z"/></svg>
